X:1
T:One Day
T:One Day
T:From Pirates of the Caribbean: At World's End
T:Hans Zimmer
C:Hans Zimmer
%%score { ( 1 2 ) | ( 3 4 ) }
L:1/8
Q:1/4=84
M:4/4
K:F
V:1 bass nm="Piano" snm="Pno."
V:2 bass 
V:3 bass 
V:4 bass 
V:1
!p! F,/A,,/D,/A,,/ F,/A,,/D,/A,,/ F,/A,,/D,/A,,/ F,/A,,/D,/A,,/ | %1
 F,/B,,/D,/B,,/ F,/B,,/D,/B,,/ F,/B,,/D,/B,,/ F,/B,,/D,/B,,/ | %2
!<(! G,/=B,,/D,/B,,/ G,/B,,/D,/B,,/ G,/B,,/D,/B,,/ G,/B,,/D,/B,,/ | %3
 G,/=B,,/D,/B,,/ G,/B,,/D,/B,,/ G,/B,,/D,/B,,/ G,/B,,/D,!<)! | %4
[K:treble]!mf! A/D/d/D/ A/D/F/D/ A/D/d/D/ A/D/F/D/ | B/D/d/D/ B/D/F/D/ B/D/d/D/ F/E/D | %6
 A/C/c/C/ A/C/F/C/ A/C/c/C/ A/C/F/C/ | G/C/c/C/ G/C/C/C/ G/C/c/C/ F/E/D || %8
 A/D/d/D/ A/D/F/D/ A/D/d/D/ A/D/F/D/ | B/D/d/D/ B/D/F/D/ B/D/d/D/ F/E/D | %10
 A/F/c/F/ A/C/F/C/ A/F/c/F/ A/C/F/C/ | G/F/c/F/ G/F/C/F/ G/C/c/C/ G/E/C/E/ | %12
!<(! ^c/A/E/^C/ !>![A,A]/E/A,/E/ !>![Dd]/A/D/A/ !>![Ee]/A/E/A/!<)! || %13
!f! !>![FAdf]DED !>![EG=ce]D!>![FAdf]D | !>![Gceg]CDC !>![FAdf]C!>![Gceg]C | %15
 !>![Acfa]CFC !>![GBdg]C!>![FAcf]C | !>![DFBd]DED !>![DFBd]D!>![EA^ce]^C | %17
 !>![FAdf]DED !>![G=ceg]D!>![Acfa]D | !>![Bdgb]DED !>![DFBd]DB[GBdg] | !>![FAdf]DED FDAD | %20
 [EA^ce]2 [Acea]2 [dfad']2 [ea^c'e']2 || %21
 !>![fad'f'](3[fad'f']/[fad'f']/[fad'f']/ [fad'f'](3[fad'f']/[fad'f']/[fad'f']/ !>![egc'e'](3[egc'e']/[egc'e']/[egc'e']/ !>![fad'f'][fad'f'] | %22
 !>![gc'e'g'](3[gc'e'g']/[gc'e'g']/[gc'e'g']/ [gc'e'g'](3[gc'e'g']/[gc'e'g']/[gc'e'g']/ !>![fad'f'](3[fad'f']/[fad'f']/[fad'f']/ (3!>![gc'e'g'][gc'e'g'][gc'e'g'] | %23
 !>![ac'f'a'](3[ac'f'a']/[ac'f'a']/[ac'f'a']/ [ac'f'a'](3[ac'f'a']/[ac'f'a']/[ac'f'a']/ !>![gbd'g'](3[gbd'g']/[gbd'g']/[gbd'g']/ !>![fac'f'][fac'f'] | %24
!>(! !>![dfbd'](3[dfbd']/[dfbd']/[dfbd']/ [dfbd'][dfbd']!>)!!mf! !>![DFBd](3[DFBd]/[DFBd]/[DFBd]/ (3!>![EA^ce][EAce][EAce] | %25
 !>![FAdf](3[FAdf]/[FAdf]/[FAdf]/ [FAdf](3[FAdf]/[FAdf]/[FAdf]/ !>![Gceg](3[Gceg]/[Gceg]/[Gceg]/ (3!>![Acfa][Acfa][Acfa] | %26
 !>![Bdgb](3[Bdgb]/[Bdgb]/[Bdgb]/ [Bdgb](3[Bdgb]/[Bdgb]/[Bdgb]/ !>![DGBd](3[DGBd]/[DGBd]/[DGBd]/ (3!>![GBdg][GBdg][GBdg] | %27
 !>![FAdf](3[FAdf]/[FAdf]/[FAdf]/ [FAdf](3[FAdf]/[FAdf]/[FAdf]/ [FAdf](3[FAdf]/[FAdf]/[FAdf]/ [FAdf][FAdf] | %28
!<(! !>![EA^ce](3[EAce]/[EAce]/[EAce]/ [EAce](3[EAce]/[EAce]/[EAce]/ [EAce](3[EAce]/[EAce]/[EAce]/ (3[EAce][EAce][EAce]!<)! || %29
!f! !>![Adfa](3[Adfa]/[Adfa]/[Adfa]/ [Adfa](3[Adfa]/[Adfa]/[Adfa]/ [Adfa](3[Adfa]/[Adfa]/[Adfa]/ (3[Adfa][Adfa][Adfa] | %30
!<(! [=Bdg=b](3[Bdgb]/[Bdgb]/[Bdgb]/ [Bdgb](3[Bdgb]/[Bdgb]/[Bdgb]/ [Bdgb](3[Bdgb]/[Bdgb]/[Bdgb]/!<)!!ff! (3!>![Bdgb]!>![Bdgb]!>![Bdgb] || %31
[Q:1/4=126] z8 ||[K:bass]!p!!<(! D,E,E,F, D,E,E,F, | D,E,E,F, D,E,E,F,!<)! || %34
[K:treble]!mf! !>![Dd]!>![A,A][K:bass]E,F, D,E,E,F, | D,E,E,F, D,E,[K:treble]!>![G,G]!>![F,F] | %36
 !>![G,G]!>![Cc][K:bass]D,E, C,D,D,E, | C,D,D,E, C,D,D,E, | %38
[K:treble] !>![Cc]!>![E,E][K:bass]D,E, C,D,D,E, | C,D,D,E, C,D,!>![D,D]!>![E,E] | %40
 !>![F,F]E,E,F, D,E,E,F, | D,E,E,F, D,E,E,F, |[K:treble] !>![Dd]!>![A,A][K:bass]E,F, D,E,E,F, | %43
 D,E,E,F, D,E,[K:treble]!>![G,G]!>![F,F] | !>![G,G]!>![Cc][K:bass]D,E, C,D,D,E, | %45
 C,D,D,E, C,D,[K:treble]!>![B,B]!>![A,A] | !>![A,A]!>![B,B][K:bass]G,B, D,G,G,B, | %47
 D,G,G,B, D,G,[K:treble]!>![F,F]!>![G,G] | !>![A,A][K:bass]E,E,A, D,E,E,A, | ^C,E,E,A, C,E,E,A, || %50
 !>![D,D][K:treble]!>![Dd][K:bass]E,F, D,E,E,F, | D,E,E,F,[K:treble] !>![Cc]E,F,!>![B,B] | %52
 !>![Cc]!>![F,F][K:bass]C,F, z C,C,F, | z C,C,F, z C,!>![F,F]!>![E,E] | %54
 !>![F,F][K:treble]!>![Ff][K:bass]E,F, D,E,E,F, | D,E,[K:treble]!>![Dd]F, !>![Ee]E,F,!>![Ff] | %56
 !>![Ee][K:bass]E,E,A, z E,E,A, | z E,E,A,[K:treble] !>![A,A]E,E,!>![A,A] || [Dd]2 [dd']6- | %59
 [dd']4 [cc']3 [dd'] | [Aa] [Dd]3- [Dd]4- | [Dd]2 [Ff]2 [Ee]3 [Dd] | [Dd][Ee]- [Ee]6- | %63
!>(! [Ee]2 [Cc]2 [Dd]3 [Ee]!>)! ||[M:6/4]!p! [Dd]6 cdfedc |[M:4/4] E2 d6- | d2 cd fedc | cd- d6- | %68
 d2 cd fedc | de- e6- | e2 cd fedc | d8- | d2 c'd' f'e'd'c' | e2 d'6- | d'2 c'd' f'e'd'c' | %75
 c'd'- d'6- | d'2 c'd' f'e'd'c' | d'e'- e'6- | e'2 c'd' f'e'd'c' | c' d'3 (3!>![A,A]FD (3A,DF | %80
!<(! (3!>![Ff]Ad (3FAd (3FAd (3!>![Ee]Ad!<)! |!mf! (3!>![Ee]FB (3EFB (3!>![Dd]FB (3DFB | %82
 (3!>![Cc]FB (3CFB (3!>![Dd]FB (3DFB | (3!>![A,A]CF (3A,CF (3!>![Cc]FA (3CFA | %84
 (3!>![Aa]cf (3Acf (3Acf (3!>![Aa]cf | (3!>![Gg]cf (3Gcf (3!>![cc']eg (3ceg | %86
 (3!>![Ee]Ac (3EAc (3EAc (3!>![Cc]EA | (3!>![Dd]FA (3DFA (3!>![A,A]DF (3A,DF | %88
!<(! (3!>![Ff]Ad (3FAd (3FAd (3!>![Ee]Ad!<)! ||!f! !>![EBde]DEF !>![DFBd]DEF | %90
 !>![CFBc]DEF !>![B,DFB]DEF | !>![A,CFA]CEF !>![CFAc]CEF | !>![Acfa]CEF A,C !>![Acfa]2 | %93
 !>![Gcfg]CFG !>![cegc']CEG | !>![EAce]EAc CE !>![CEAc]2 ||!>(! [FBdf]6 [EBde]2 | %96
 [EBde]4 [DFBd]4- | [DFBd]4!>)!!p! c'2 d'2 | f'2 e'2 d'2 c'2 | c'2 d'6 | [E,G,CE]8 | %101
 !fermata![D,A,D]8 |] %102
V:2
 A,8 | B,8 | =B,8- | B,8 |[K:treble] x8 | x8 | x8 | x8 || x8 | x8 | x8 | x8 | x8 || x8 | x8 | x8 | %16
 x8 | x8 | x8 | x8 | x8 || x8 | x8 | x8 | x8 | x8 | x8 | x8 | x8 || x8 | x8 || x8 ||[K:bass] x8 | %33
 x8 ||[K:treble] x2[K:bass] x6 | x6[K:treble] x2 | x2[K:bass] x6 | x8 |[K:treble] x2[K:bass] x6 | %39
 x8 | x8 | x8 |[K:treble] x2[K:bass] x6 | x6[K:treble] x2 | x2[K:bass] x6 | x6[K:treble] x2 | %46
 x2[K:bass] x6 | x6[K:treble] x2 | x[K:bass] x7 | x8 || x[K:treble] x[K:bass] x6 | %51
 x4[K:treble] x4 | x2[K:bass] x6 | x8 | x[K:treble] x[K:bass] x6 | x2[K:treble] x6 | x[K:bass] x7 | %57
 x4[K:treble] x4 || x8 | x8 | x8 | x8 | x8 | x8 ||[M:6/4] x12 |[M:4/4] cd- F6- | F4 G4 | G2 A6- | %68
 A4 F4 | G2 c6- | c4 E4 | D8- | D4 e4 | c'd'- f6- | f4 g4 | g2 a6- | a4 f4 | g2 c'6- | c'4 e4 | %79
 d4 x4 | x8 | x8 | x8 | x8 | x8 | x8 | x8 | x8 | x8 || x8 | x8 | x8 | x8 | x8 | x8 || x8 | x8 | %97
 x8 | x8 | x8 | x8 | x8 |] %102
V:3
 [D,,,D,,]8 | [D,,,D,,]8 | [D,,,D,,]2[K:treble] AD AdAD | AdAG Ad F/E/D | %4
[K:bass] [D,,,D,,]D,A,D, A,D,A,D, | [B,,,,B,,,]D,B,D, B,D,B,D, | [F,,,F,,]C,A,C, A,C,A,C, | %7
 [C,,,C,,]F,G,F, G,E,G,E, || [D,,,D,,]2 !>!D,2 !>!F,4 | [B,,,,B,,,]2 !>!F,2 !>!B,4 | %10
 [F,,,F,,]2 !>!A,2 !>!C4 | [C,,,C,,]2 !>!C2 !>!E4 | [A,,,,A,,,]E,,A,,E, =B,E,^CE, || %13
 [D,,,D,,]A,,D,A,, E,A,,F,A,, | [E,,,E,,]C,E,C, F,C,G,C, | [F,,,F,,]C,F,C, G,C,A,C, | %16
 [B,,,,B,,,]F,,B,,F,, D,F,, [^C,,,^C,,]2 | [D,,,D,,]A,,D,A,, [E,,,E,,]2 [F,,,F,,]2 | %18
 [G,,,G,,]D,G,D, B,D,G,D, | [A,,,A,,]E,A,E, CE,A,E, | [A,,,A,,]A,[^CE]A, [DF]A,[EG]A, || %21
 [D,,,D,,]A,,D,A, EA,FA, | [E,,,E,,]C,G,C FCGC | [F,,,F,,]C,F,C, [G,,,G,,]2 [A,,,A,,]2 | %24
 [B,,,,B,,,]F,,B,,F, B,F, [^C,,,^C,,]2 | [D,,,D,,]A,,D,A,, [E,,,E,,]2 [F,,,F,,]2 | %26
 [G,,,G,,]D,G,D, B,D,G,D, | [A,,,A,,]D,!>!F,D, !>!A,D,F,D, | [A,,,,A,,,]^C,!>!E,C, !>!A,E,C,A,, || %29
 [D,,,D,,](3[D,,,D,,]/[D,,,D,,]/[D,,,D,,]/ [D,,,D,,](3[D,,,D,,]/[D,,,D,,]/[D,,,D,,]/ [D,,,D,,](3[D,,,D,,]/[D,,,D,,]/[D,,,D,,]/ (3[D,,,D,,][D,,,D,,][D,,,D,,] | %30
 [D,,,D,,](3[D,,,D,,]/[D,,,D,,]/[D,,,D,,]/ [D,,,D,,](3[D,,,D,,]/[D,,,D,,]/[D,,,D,,]/ [D,,,D,,](3[D,,,D,,]/[D,,,D,,]/[D,,,D,,]/ (3!>![D,,,D,,]!>![D,,,D,,]!>![D,,,D,,] || %31
 !>!D,,,8- || D,,,8- | D,,,8 || D,,,8- | D,,,8 | C,,,8- | C,,,8 | A,,,,8- | A,,,,8 | D,,,8- | %41
 D,,,8 | D,,,8- | D,,,8 | C,,,8- | C,,,8 | G,,,8- | G,,,8 | A,,,8- | A,,,8 || B,,,,8- | B,,,,8 | %52
 F,,,8- | F,,,8 | D,,,8- | D,,,8 | A,,,8- | A,,,8 || [B,,,,B,,,]E,E,F, D,E,E,F, | %59
 D,E,E,F, D,E,E,F, | [D,,,D,,]E,E,F, D,E,E,F, | D,E,E,F, D,E,E,F, | [A,,,A,,]E,E,A, A,,E,E,A, | %63
 A,,E,E,A, A,,E,E,A, ||[M:6/4] D,A,FA,FA, FA,EA,EA, |[M:4/4] B,,F,B,B, FB,EB, | EB,EB, DB,DB, | %67
 D,A,FA, FA,EA, | EA,EA, DA,DA, | C,G,CG, EG,CG, | A,,E,A,E, CE,A,E, | D,A,FA, FA,EA, | %72
 EA,EA, DA,DA, | B,,B,FB, FB,EB, | EB,EB, DB,DB, | D,A,FA, FA,EA, | EA,EA, DA,DA, | %77
 C,G,CG, EG,CG, | A,,E,A,E, CE,A,E, | (3D,,A,,D, (3F,A,D z4 | (3D,,2 A,,2 D,2 F,2 [C,,,C,,]2 | %81
 (3[B,,,,B,,,]2 F,,2 B,,2 (3D,2 B,,2 F,,2 | (3B,,,2 F,,2 B,,2 (3D,2 B,,2 F,,2 | %83
 (3[F,,,F,,]2 C,2 F,2 (3A,2 F,2 C,2 | (3F,,2 C,2 F,2 (3A,2 F,2 C,2 | %85
 (3[C,,,C,,]2 G,,2 C,2 (3E,2 C,2 G,,2 | (3[A,,,A,,]2 E,2 A,2 (3C2 A,2 E,2 | %87
 (3[D,,,D,,]2 A,,2 D,2 (3F,2 D,2 A,,2 | (3D,,2 A,,2 D,2 (3F,2 A,2 D2 || %89
 [B,,,,B,,,]F,B,B,, F,B,B,,F, | B,B,,F,B, B,,F,B,B,, | [F,,,F,,]C,F,F,, C,F,F,,C, | %92
 F,F,,C,F, F,,C,F,F,, | [C,,,C,,]G,,C,C,, G,,C,C,,G,, | [A,,,,A,,,]E,A,A,, E,A,A,,E, || %95
 [B,,,,B,,,]F,,B,,F, B,B,,F,B, | B,,F,B,B,, F,B,B,,F, | B,8- | B,8 | [B,F]8 | C,,8 | %101
 !fermata!D,,8 |] %102
V:4
 x8 | x8 | x2[K:treble] x6 | x8 |[K:bass] x8 | x8 | x8 | x8 || x8 | x8 | x8 | x8 | x8 || x8 | x8 | %15
 x8 | x8 | x8 | x8 | x8 | x8 || x8 | x8 | x8 | x8 | x8 | x8 | x8 | x8 || x8 | x8 || D,,8- || %32
 D,,4 D,,4 | D,,4 D,,4 || D,,4 D,,4 | D,,4 D,,4 | C,,4 C,,4 | C,,4 C,,4 | A,,,4 A,,,4 | %39
 A,,,4 A,,,4 | D,,4 D,,4 | D,,4 D,,4 | D,,4 D,,4 | D,,4 D,,4 | C,,4 C,,4 | C,,4 C,,4 | G,,4 G,,4 | %47
 G,,4 G,,4 | A,,4 A,,4 | A,,4 A,,4 || B,,,4 B,,,4 | B,,,4 B,,,4 | F,,4 F,,4 | F,,4 F,,4 | %54
 D,,4 D,,4 | D,,4 D,,4 | A,,4 A,,4 | A,,4 A,,4 || x8 | x8 | x8 | x8 | x8 | x8 ||[M:6/4] x12 | %65
[M:4/4] x8 | x8 | x8 | x8 | x8 | x8 | x8 | x8 | x8 | x8 | x8 | x8 | x8 | x8 | x8 | x8 | x8 | x8 | %83
 x8 | x8 | x8 | x8 | x8 | x8 || x8 | x8 | x8 | x8 | x8 | x8 || x8 | x8 | x8 | x8 | x8 | x8 | x8 |] %102

